X:1014
T:Trip To Birmingham, The
T:Josie McDermott's
R:reel
C:Josie McDermott (1925-1992)
D:Matt Molloy
Z:id:hn-reel-1014
M:C|
L:1/8
K:G
DGGF G2Bd | ~e3d edBA | ~G3B dGBG | ABAG EGDE |
DGGF GABd | ~e3d efga | bg~g2 ageg |1 dBAB G3E :|2 dBAB G2Bc ||
|: dggf ~g3a | bgag edBA | ~G3B dGBG | ABAG EGD2 |
[1 dggf ~g3a | bgag edBA | ~G3B dGBG | AGFA GABc :|
[2 dg~g2 ag~g2 | bg~g2 edBA | G3B dGBG | AGFA G3E || 

